packages/web/app/assets/images/handover_notes.svg

<svg fill="none" height="20" viewBox="0 0 17 20" width="17" xmlns="http://www.w3.org/2000/svg"><path d="m14.625 1.75h-3.6575c-.3675-1.015-1.33-1.75-2.4675-1.75s-2.1.735-2.4675 1.75h-3.6575c-.9625 0-1.75.7875-1.75 1.75v14c0 .9625.7875 1.75 1.75 1.75h12.25c.9625 0 1.75-.7875 1.75-1.75v-14c0-.9625-.7875-1.75-1.75-1.75zm-6.125 0c.48125 0 .875.39375.875.875s-.39375.875-.875.875-.875-.39375-.875-.875.39375-.875.875-.875zm6.125 15.75h-12.25v-14h1.75v2.625h8.75v-2.625h1.75z" fill="#326699"/></svg>

<svg width="17" height="20" viewBox="0 0 17 20" fill="none" xmlns="http://www.w3.org/2000/svg">
<path d="M14.625 1.75H10.9675C10.6 0.735 9.6375 0 8.5 0C7.3625 0 6.4 0.735 6.0325 1.75H2.375C1.4125 1.75 0.625 2.5375 0.625 3.5V17.5C0.625 18.4625 1.4125 19.25 2.375 19.25H14.625C15.5875 19.25 16.375 18.4625 16.375 17.5V3.5C16.375 2.5375 15.5875 1.75 14.625 1.75ZM8.5 1.75C8.98125 1.75 9.375 2.14375 9.375 2.625C9.375 3.10625 8.98125 3.5 8.5 3.5C8.01875 3.5 7.625 3.10625 7.625 2.625C7.625 2.14375 8.01875 1.75 8.5 1.75ZM14.625 17.5H2.375V3.5H4.125V6.125H12.875V3.5H14.625V17.5Z" fill="#326699"/>
</svg>
